src/objects/household/1F9FC.svg

<svg id="emoji" viewBox="0 0 72 72" xmlns="http://www.w3.org/2000/svg">
  <g id="grid">
    <path fill="#b3b3b3" d="M68,4V68H4V4H68m4-4H0V72H72V0Z"/>
    <path fill="none" stroke="#00a5ff" stroke-miterlimit="10" stroke-width="0.1" d="M12.923,10.9583H59.0769A1.9231,1.9231,0,0,1,61,12.8814V59.0352a1.9231,1.9231,0,0,1-1.9231,1.9231H12.9231A1.9231,1.9231,0,0,1,11,59.0352V12.8813A1.923,1.923,0,0,1,12.923,10.9583Z"/>
    <rect x="16" y="4" rx="2.2537" ry="2.2537" width="40" height="64" fill="none" stroke="#00a5ff" stroke-miterlimit="10" stroke-width="0.1"/>
    <rect x="16" y="4" rx="2.2537" ry="2.2537" width="40" height="64" transform="translate(72) rotate(90)" fill="none" stroke="#00a5ff" stroke-miterlimit="10" stroke-width="0.1"/>
    <circle cx="36" cy="36" r="29" fill="none" stroke="#00a5ff" stroke-miterlimit="10" stroke-width="0.1"/>
  </g>
  <g id="color">
    <rect x="15.6055" y="25.6722" rx="10.9652" ry="10.9652" width="41.6334" height="26.4867" fill="#ffa7c0"/>
    <path fill="#61b2e4" d="M18.9426,34.3527a4.1622,4.1622,0,0,1-4.1633,4.1634,3.9106,3.9106,0,0,1-1.5613-.3123,4.1509,4.1509,0,0,1,0-7.7022,3.9088,3.9088,0,0,1,1.5613-.3122A4.1621,4.1621,0,0,1,18.9426,34.3527Z"/>
    <ellipse cx="14.2589" cy="34.3527" rx="2.6021" ry="3.8511" fill="#92d3f5"/>
    <ellipse cx="19.6754" cy="23.7084" rx="3.8019" ry="4.6838" transform="translate(-8.259 10.7131) rotate(-25.3628)" fill="#92d3f5"/>
    <path fill="#61b2e4" d="M31.6443,23.2787a5.2061,5.2061,0,0,1-1.8034,7.1354,5.5518,5.5518,0,0,1-1.4581.6032,5.2188,5.2188,0,0,1-5.0975-8.5455,5.5512,5.5512,0,0,1,1.2235-.9965A5.2062,5.2062,0,0,1,31.6443,23.2787Z"/>
    <ellipse cx="25.8527" cy="26.8513" rx="3.6908" ry="5.1536" transform="translate(-11.3165 29.6449) rotate(-50.3837)" fill="#92d3f5"/>
  </g>
  <g id="line">
    <path fill="none" stroke="#000" stroke-miterlimit="10" stroke-width="2" d="M21.2364,27.2573a11.3923,11.3923,0,0,0-3.9031,3.8094"/>
    <path fill="none" stroke="#000" stroke-miterlimit="10" stroke-width="2" d="M31.499,25.6752H45.8209a11.4406,11.4406,0,0,1,11.418,11.4075v3.6638A11.4406,11.4406,0,0,1,45.8209,52.154H27.0234A11.4406,11.4406,0,0,1,15.6055,40.7465V38.4358"/>
    <line x1="24.9484" x2="47.8959" y1="35.8962" y2="35.8962" fill="none" stroke="#000" stroke-linecap="round" stroke-linejoin="round" stroke-width="2"/>
    <line x1="24.9484" x2="47.8959" y1="41.935" y2="41.935" fill="none" stroke="#000" stroke-linecap="round" stroke-linejoin="round" stroke-width="2"/>
    <circle cx="14.7793" cy="34.3527" r="4.1633" fill="none" stroke="#000" stroke-miterlimit="10" stroke-width="2"/>
    <path fill="none" stroke="#000" stroke-linecap="round" stroke-linejoin="round" stroke-width="2" d="M23.6752,21.87a5.1348,5.1348,0,0,0-.4909.3643,4.1077,4.1077,0,0,0-.1777-.4986,4.1633,4.1633,0,1,0-1.9787,5.5454c.0665-.0315.1208-.0771.1848-.1116A5.1985,5.1985,0,1,0,23.6752,21.87Z"/>
  </g>
</svg>

<svg viewBox="0 0 72 72" xmlns="http://www.w3.org/2000/svg"><path fill="#b3b3b3" d="M68 4v64H4V4h64m4-4H0v72h72V0z"/><path fill="none" stroke="#00a5ff" stroke-miterlimit="10" stroke-width=".1" d="M12.923 10.958h46.154A1.923 1.923 0 0161 12.881v46.154a1.923 1.923 0 01-1.923 1.923H12.923A1.923 1.923 0 0111 59.035V12.881a1.923 1.923 0 011.923-1.923z"/><rect x="16" y="4" rx="2.254" ry="2.254" width="40" height="64" fill="none" stroke="#00a5ff" stroke-miterlimit="10" stroke-width=".1"/><rect x="16" y="4" rx="2.254" ry="2.254" width="40" height="64" transform="rotate(90 36 36)" fill="none" stroke="#00a5ff" stroke-miterlimit="10" stroke-width=".1"/><circle cx="36" cy="36" r="29" fill="none" stroke="#00a5ff" stroke-miterlimit="10" stroke-width=".1"/><g stroke-linecap="round" stroke-miterlimit="10" stroke-width="6" stroke="#fff" fill="none" stroke-linejoin="round"><path d="M21.236 27.257a11.392 11.392 0 00-3.903 3.81m14.166-5.392h14.322a11.44 11.44 0 0111.418 11.408v3.664A11.44 11.44 0 0145.82 52.154H27.023a11.44 11.44 0 01-11.418-11.408v-2.31m9.343-2.54h22.948m-22.948 6.039h22.948"/><circle cx="14.779" cy="34.353" r="4.163"/><path d="M23.675 21.87a5.135 5.135 0 00-.49.364 4.108 4.108 0 00-.178-.498 4.163 4.163 0 10-1.98 5.545c.067-.031.122-.077.186-.111a5.199 5.199 0 102.462-5.3z"/></g><rect x="15.605" y="25.672" rx="10.965" ry="10.965" width="41.633" height="26.487" fill="#ffa7c0"/><path fill="#61b2e4" d="M18.943 34.353a4.162 4.162 0 01-4.164 4.163 3.91 3.91 0 01-1.561-.312 4.15 4.15 0 010-7.702 3.909 3.909 0 011.561-.313 4.162 4.162 0 014.164 4.164z"/><ellipse cx="14.259" cy="34.353" rx="2.602" ry="3.851" fill="#92d3f5"/><ellipse cx="19.675" cy="23.708" rx="3.802" ry="4.684" transform="rotate(-25.363 19.675 23.708)" fill="#92d3f5"/><path fill="#61b2e4" d="M31.644 23.279a5.206 5.206 0 01-1.803 7.135 5.552 5.552 0 01-1.458.603 5.219 5.219 0 01-5.098-8.545 5.551 5.551 0 011.224-.997 5.206 5.206 0 017.135 1.804z"/><ellipse cx="25.853" cy="26.851" rx="3.691" ry="5.154" transform="rotate(-50.384 25.853 26.851)" fill="#92d3f5"/><g fill="none" stroke="#000" stroke-width="2"><path stroke-miterlimit="10" d="M21.236 27.257a11.392 11.392 0 00-3.903 3.81m14.166-5.392h14.322a11.44 11.44 0 0111.418 11.408v3.664A11.44 11.44 0 0145.82 52.154H27.023a11.44 11.44 0 01-11.418-11.408v-2.31"/><path stroke-linecap="round" stroke-linejoin="round" d="M24.948 35.896h22.948m-22.948 6.039h22.948"/><circle cx="14.779" cy="34.353" r="4.163" stroke-miterlimit="10"/><path stroke-linecap="round" stroke-linejoin="round" d="M23.675 21.87a5.135 5.135 0 00-.49.364 4.108 4.108 0 00-.178-.498 4.163 4.163 0 10-1.98 5.545c.067-.031.122-.077.186-.111a5.199 5.199 0 102.462-5.3z"/></g></svg>
